X:1
T: Bonny Katherine
C: Brendan Tonra
Q: 350
R: reel
Z:Transcribed by Bill Black
M: 4/4
L: 1/8
K: D
df f2 edBc | dfed BFDE | F3 E DEFD | E2 DF ED B,2 |
df f2 edBc | dfed BFDE | F3 E DFBd | efde fd d2 ||
f3 e defg | adfa dfec | f3 e dfaf |1 defd edeg |
f3 e defg | adfa dfec | (3dcB cA BcdB | (3efe de fd d2 :|
|2 defd eg (3efg | afeg f3 e | dcBA BAFA | BdAF DEFD | (3EFE DE FD D2 ||

composer: Brendan Tonra
